packages/bezier-icons/icons/book.svg

<svg width="24" height="24" viewBox="0 0 24 24" fill="none" xmlns="http://www.w3.org/2000/svg">
<path fill-rule="evenodd" clip-rule="evenodd" d="M16.0712 3.00012H20.5002C21.3285 3.00012 22.0002 3.67184 22.0002 4.50012V18.5001C22.0002 19.3284 21.3285 20.0001 20.5002 20.0001H16.0712C15.0106 20.0001 13.9927 20.4216 13.243 21.1706L12.708 21.7066C12.3176 22.0977 11.6839 22.098 11.2931 21.7072L10.7571 21.1712C10.0075 20.4216 8.98982 20.0001 7.92921 20.0001H3.50021C2.67193 20.0001 2.00021 19.3284 2.00021 18.5001V4.50012C2.00021 3.67184 2.67193 3.00012 3.50021 3.00012H7.92921C9.44075 3.00012 10.894 3.57075 11.9998 4.59215C13.1065 3.57071 14.5597 3.00012 16.0712 3.00012ZM20.0002 5.00012H16.0712C15.0106 5.00012 13.9927 5.42164 13.243 6.17057L13.0002 6.41379V18.8454C13.9215 18.2969 14.9812 18.0001 16.0712 18.0001H20.0002V5.00012ZM11.0002 18.8456V6.41434L10.7571 6.17123C10.0075 5.42164 8.98982 5.00012 7.92921 5.00012H4.00021V18.0001H7.92921C9.01936 18.0001 10.0792 18.2969 11.0002 18.8456Z" fill="#313234"/>
</svg>

<svg xmlns="http://www.w3.org/2000/svg" width="24" height="24" fill="none" viewBox="0 0 24 24"><path fill="#313234" fill-rule="evenodd" d="M16.071 3h4.43A1.5 1.5 0 0 1 22 4.5v14a1.5 1.5 0 0 1-1.5 1.5h-4.43c-1.06 0-2.078.422-2.828 1.17l-.535.537a1 1 0 0 1-1.415 0l-.536-.536a4 4 0 0 0-2.828-1.17H3.5A1.5 1.5 0 0 1 2 18.5v-14A1.5 1.5 0 0 1 3.5 3h4.43A6 6 0 0 1 12 4.591 6 6 0 0 1 16.07 3m3.93 2h-3.93c-1.06 0-2.078.422-2.828 1.17L13 6.415v12.431A6 6 0 0 1 16.071 18h3.93zm-9 13.846V6.414l-.244-.243a4 4 0 0 0-2.828-1.17H4v13h3.93a6 6 0 0 1 3.07.845" clip-rule="evenodd"/></svg>
